imgs/polykit-logo.svg

<?xml version="1.0" encoding="utf-8"?>
<!-- Generator: Adobe Illustrator 28.0.0, SVG Export Plug-In . SVG Version: 6.00 Build 0)  -->
<svg version="1.1" id="Layer_1" xmlns="http://www.w3.org/2000/svg" xmlns:xlink="http://www.w3.org/1999/xlink" x="0px" y="0px"
	 viewBox="0 0 5654.2 1980.3" style="enable-background:new 0 0 5654.2 1980.3;" xml:space="preserve">
<style type="text/css">
	.st0{fill:#FFA500;}
	.st1{fill:#333333;}
</style>
<g>
	<g id="Octogon">
		<path class="st0" d="M1866.7,695.1c-10-3.7-20-7.7-29.9-11.7c-244.1-100.2-439.2-295.3-539.4-539.4c-3.9-9.5-7.7-19.1-11.3-28.8
			h-0.1C1252.6,49,1133,0,990.7,0S728.9,49,695.5,115.2h-0.2c-3.6,9.7-7.4,19.3-11.3,28.8c73.2,197.6,177.4,380.1,306.8,541.6
			c8.4,10.5,17,21,25.6,31.3c8.6,10.3,17.4,20.6,26.2,30.8c0,0,0.1,0.1,0.1,0.1c5.2,5.9,10.4,11.8,15.6,17.7
			c15.7,17.6,31.7,34.9,48,51.9c0,0,0,0,0,0c40.5,42.2,82.8,82.5,126.8,120.9c0,0,0,0,0,0c20.3,17.7,41.1,35,62.1,51.9
			c-69.4,55.6-135,115.9-196.1,180.3c-22.5,18.8-48.7,35.4-56.5,29.7l13.8,16.7h0l12.3,15.3c118.4,147.7,215.1,310,288.3,483.2
			c108.9-187.3,277.5-335.5,479.8-418.5c9.9-4.1,19.8-8,29.9-11.7c65.9-33.8,114.7-153.1,114.7-295
			C1981.4,848.2,1932.7,729,1866.7,695.1z"/>
		<path class="st0" d="M965.1,1263.4c-8.6-10.3-17.4-20.6-26.2-30.8c0,0-0.1-0.1-0.1-0.1c-5.2-5.9-10.4-11.8-15.6-17.7
			c-15.7-17.6-31.7-34.9-48-51.9c0,0,0,0,0,0c-40.5-42.2-82.8-82.5-126.8-120.9c0,0,0,0,0,0c-20.3-17.7-41.1-35-62.1-51.9
			c68.6-55,133.5-114.5,194-178.1c22.6-19.5,49.8-36.9,57.9-31l-13.1-17.7h0l-12.3-15.3c-118.4-147.7-215.1-310-288.3-483.2
			C515.5,452.2,346.8,600.4,144.5,683.4c-9.9,4.1-19.8,8-29.9,11.7C48.7,729,0,848.2,0,990.2c0,141.9,48.7,261.2,114.7,295
			c10,3.7,20,7.7,29.9,11.7c244.1,100.2,439.2,295.3,539.4,539.4c3.9,9.5,7.7,19.1,11.3,28.8h0.1c33.5,66.2,153,115.2,295.3,115.2
			s261.8-49,295.3-115.2h0.2c3.6-9.7,7.4-19.3,11.3-28.8c-73.2-197.6-177.4-380.1-306.8-541.6
			C982.2,1284.2,973.7,1273.8,965.1,1263.4z"/>
	</g>
	<g>
		<path class="st1" d="M2951.1,832.3c0,155.5-99.6,265-268.3,265h-169.7V1371h-150V568.4h150H2684
			C2850.4,568.4,2951.1,670.2,2951.1,832.3z M2793.5,829c0-65.7-40.5-128.1-136.9-128.1h-143.4v266.1h142.3
			C2752.9,966.9,2793.5,902.3,2793.5,829z"/>
		<path class="st1" d="M3266.2,812.5c170.8,0,283.6,118.3,283.6,285.8c0,168.6-112.8,285.8-283.6,285.8
			c-170.8,0-284.7-117.2-284.7-285.8C2981.5,930.8,3095.3,812.5,3266.2,812.5z M3266.2,1256c84.3,0,140.2-64.6,140.2-157.7
			s-55.8-157.7-140.2-157.7c-85.4,0-140.2,64.6-140.2,157.7S3180.8,1256,3266.2,1256z"/>
		<path class="st1" d="M3638.3,553h143.4v818h-143.4V553z"/>
		<path class="st1" d="M4430.6,827.9L4170,1499.1c-66.8,173-207,152.2-311,113.9l38.3-129.2c59.1,36.1,129.2,39.4,155.5-35l17.5-46
			l-232.1-574.9h151.1l147.8,392l144.5-392H4430.6z"/>
		<path class="st1" d="M4490.7,1371V553h143.4v486.2l200.4-211.3H5013l-235.4,248.6l221.2,294.6h-174.1l-141.3-196l-49.3,52.6V1371
			H4490.7z"/>
		<path class="st1" d="M5059.7,642.8c0-48.2,38.3-85.4,86.5-85.4c48.2,0,86.5,37.2,86.5,85.4c0,49.3-38.3,86.5-86.5,86.5
			C5098.1,729.3,5059.7,692.1,5059.7,642.8z M5218.5,827.9V1371h-143.4V827.9H5218.5z"/>
		<path class="st1" d="M5631.2,946.1h-104V1371H5387V946.1h-105.1V827.9H5387V659.2h140.2v168.6h104V946.1z"/>
	</g>
</g>
</svg>

<svg width="5655" height="1981" viewBox="0 0 5655 1981" fill="none" xmlns="http://www.w3.org/2000/svg">
<g clip-path="url(#clip0_308_622)">
<path d="M1866.7 695.1C1856.7 691.4 1846.7 687.4 1836.8 683.4C1592.7 583.2 1397.6 388.1 1297.4 144C1293.5 134.5 1289.7 124.9 1286.1 115.2H1286C1252.6 49 1133 0 990.7 0C848.4 0 728.9 49 695.5 115.2H695.3C691.7 124.9 687.9 134.5 684 144C757.2 341.6 861.4 524.1 990.8 685.6C999.2 696.1 1007.8 706.6 1016.4 716.9C1025 727.2 1033.8 737.5 1042.6 747.7L1042.7 747.8C1047.9 753.7 1053.1 759.6 1058.3 765.5C1074 783.1 1090 800.4 1106.3 817.4C1146.8 859.6 1189.1 899.9 1233.1 938.3C1253.4 956 1274.2 973.3 1295.2 990.2C1225.8 1045.8 1160.2 1106.1 1099.1 1170.5C1076.6 1189.3 1050.4 1205.9 1042.6 1200.2L1056.4 1216.9L1068.7 1232.2C1187.1 1379.9 1283.8 1542.2 1357 1715.4C1465.9 1528.1 1634.5 1379.9 1836.8 1296.9C1846.7 1292.8 1856.6 1288.9 1866.7 1285.2C1932.6 1251.4 1981.4 1132.1 1981.4 990.2C1981.4 848.2 1932.7 729 1866.7 695.1Z" fill="#1F8DF0"/>
<path d="M965.1 1263.4C956.5 1253.1 947.7 1242.8 938.9 1232.6L938.8 1232.5C933.6 1226.6 928.4 1220.7 923.2 1214.8C907.5 1197.2 891.5 1179.9 875.2 1162.9C834.7 1120.7 792.4 1080.4 748.4 1042C728.1 1024.3 707.3 1007 686.3 990.1C754.9 935.1 819.8 875.6 880.3 812C902.9 792.5 930.1 775.1 938.2 781L925.1 763.3L912.8 748C794.4 600.3 697.7 438 624.5 264.8C515.5 452.2 346.8 600.4 144.5 683.4C134.6 687.5 124.7 691.4 114.6 695.1C48.7 729 0 848.2 0 990.2C0 1132.1 48.7 1251.4 114.7 1285.2C124.7 1288.9 134.7 1292.9 144.6 1296.9C388.7 1397.1 583.8 1592.2 684 1836.3C687.9 1845.8 691.7 1855.4 695.3 1865.1H695.4C728.9 1931.3 848.4 1980.3 990.7 1980.3C1133 1980.3 1252.5 1931.3 1286 1865.1H1286.2C1289.8 1855.4 1293.6 1845.8 1297.5 1836.3C1224.3 1638.7 1120.1 1456.2 990.7 1294.7C982.2 1284.2 973.7 1273.8 965.1 1263.4Z" fill="#1F8DF0"/>
<path d="M2951.1 832.3C2951.1 987.8 2851.5 1097.3 2682.8 1097.3H2513.1V1371H2363.1V568.4H2513.1H2684C2850.4 568.4 2951.1 670.2 2951.1 832.3ZM2793.5 829C2793.5 763.3 2753 700.9 2656.6 700.9H2513.2V967H2655.5C2752.9 966.9 2793.5 902.3 2793.5 829Z" fill="#333333"/>
<path d="M3266.2 812.5C3437 812.5 3549.8 930.8 3549.8 1098.3C3549.8 1266.9 3437 1384.1 3266.2 1384.1C3095.4 1384.1 2981.5 1266.9 2981.5 1098.3C2981.5 930.8 3095.3 812.5 3266.2 812.5ZM3266.2 1256C3350.5 1256 3406.4 1191.4 3406.4 1098.3C3406.4 1005.2 3350.6 940.6 3266.2 940.6C3180.8 940.6 3126 1005.2 3126 1098.3C3126 1191.4 3180.8 1256 3266.2 1256Z" fill="#333333"/>
<path d="M3638.3 553H3781.7V1371H3638.3V553Z" fill="#333333"/>
<path d="M4430.6 827.9L4170 1499.1C4103.2 1672.1 3963 1651.3 3859 1613L3897.3 1483.8C3956.4 1519.9 4026.5 1523.2 4052.8 1448.8L4070.3 1402.8L3838.2 827.9H3989.3L4137.1 1219.9L4281.6 827.9H4430.6Z" fill="#333333"/>
<path d="M4490.7 1371V553H4634.1V1039.2L4834.5 827.9H5013L4777.6 1076.5L4998.8 1371.1H4824.7L4683.4 1175.1L4634.1 1227.7V1371H4490.7Z" fill="#333333"/>
<path d="M5059.7 642.8C5059.7 594.6 5098 557.4 5146.2 557.4C5194.4 557.4 5232.7 594.6 5232.7 642.8C5232.7 692.1 5194.4 729.3 5146.2 729.3C5098.1 729.3 5059.7 692.1 5059.7 642.8ZM5218.5 827.9V1371H5075.1V827.9H5218.5Z" fill="#333333"/>
<path d="M5631.2 946.1H5527.2V1371H5387V946.1H5281.9V827.9H5387V659.2H5527.2V827.8H5631.2V946.1Z" fill="#333333"/>
<path d="M1866.7 695.1C1856.7 691.4 1846.7 687.4 1836.8 683.4C1592.7 583.2 1397.6 388.1 1297.4 144C1293.5 134.5 1289.7 124.9 1286.1 115.2H1286C1252.6 49 1133 0 990.7 0C848.4 0 728.9 49 695.5 115.2H695.3C691.7 124.9 687.9 134.5 684 144C757.2 341.6 861.4 524.1 990.8 685.6C999.2 696.1 1007.8 706.6 1016.4 716.9C1025 727.2 1033.8 737.5 1042.6 747.7L1042.7 747.8C1047.9 753.7 1053.1 759.6 1058.3 765.5C1074 783.1 1090 800.4 1106.3 817.4C1146.8 859.6 1189.1 899.9 1233.1 938.3C1253.4 956 1274.2 973.3 1295.2 990.2C1225.8 1045.8 1160.2 1106.1 1099.1 1170.5C1076.6 1189.3 1050.4 1205.9 1042.6 1200.2L1056.4 1216.9L1068.7 1232.2C1187.1 1379.9 1283.8 1542.2 1357 1715.4C1465.9 1528.1 1634.5 1379.9 1836.8 1296.9C1846.7 1292.8 1856.6 1288.9 1866.7 1285.2C1932.6 1251.4 1981.4 1132.1 1981.4 990.2C1981.4 848.2 1932.7 729 1866.7 695.1Z" fill="#1F8DF0"/>
<path d="M965.1 1263.4C956.5 1253.1 947.7 1242.8 938.9 1232.6L938.8 1232.5C933.6 1226.6 928.4 1220.7 923.2 1214.8C907.5 1197.2 891.5 1179.9 875.2 1162.9C834.7 1120.7 792.4 1080.4 748.4 1042C728.1 1024.3 707.3 1007 686.3 990.1C754.9 935.1 819.8 875.6 880.3 812C902.9 792.5 930.1 775.1 938.2 781L925.1 763.3L912.8 748C794.4 600.3 697.7 438 624.5 264.8C515.5 452.2 346.8 600.4 144.5 683.4C134.6 687.5 124.7 691.4 114.6 695.1C48.7 729 0 848.2 0 990.2C0 1132.1 48.7 1251.4 114.7 1285.2C124.7 1288.9 134.7 1292.9 144.6 1296.9C388.7 1397.1 583.8 1592.2 684 1836.3C687.9 1845.8 691.7 1855.4 695.3 1865.1H695.4C728.9 1931.3 848.4 1980.3 990.7 1980.3C1133 1980.3 1252.5 1931.3 1286 1865.1H1286.2C1289.8 1855.4 1293.6 1845.8 1297.5 1836.3C1224.3 1638.7 1120.1 1456.2 990.7 1294.7C982.2 1284.2 973.7 1273.8 965.1 1263.4Z" fill="#1F8DF0"/>
<path d="M2951.1 832.3C2951.1 987.8 2851.5 1097.3 2682.8 1097.3H2513.1V1371H2363.1V568.4H2513.1H2684C2850.4 568.4 2951.1 670.2 2951.1 832.3ZM2793.5 829C2793.5 763.3 2753 700.9 2656.6 700.9H2513.2V967H2655.5C2752.9 966.9 2793.5 902.3 2793.5 829Z" fill="black"/>
<path d="M3266.2 812.5C3437 812.5 3549.8 930.8 3549.8 1098.3C3549.8 1266.9 3437 1384.1 3266.2 1384.1C3095.4 1384.1 2981.5 1266.9 2981.5 1098.3C2981.5 930.8 3095.3 812.5 3266.2 812.5ZM3266.2 1256C3350.5 1256 3406.4 1191.4 3406.4 1098.3C3406.4 1005.2 3350.6 940.6 3266.2 940.6C3180.8 940.6 3126 1005.2 3126 1098.3C3126 1191.4 3180.8 1256 3266.2 1256Z" fill="black"/>
<path d="M3638.3 553H3781.7V1371H3638.3V553Z" fill="black"/>
<path d="M4430.6 827.9L4170 1499.1C4103.2 1672.1 3963 1651.3 3859 1613L3897.3 1483.8C3956.4 1519.9 4026.5 1523.2 4052.8 1448.8L4070.3 1402.8L3838.2 827.9H3989.3L4137.1 1219.9L4281.6 827.9H4430.6Z" fill="black"/>
<path d="M4490.7 1371V553H4634.1V1039.2L4834.5 827.9H5013L4777.6 1076.5L4998.8 1371.1H4824.7L4683.4 1175.1L4634.1 1227.7V1371H4490.7Z" fill="black"/>
<path d="M5059.7 642.8C5059.7 594.6 5098 557.4 5146.2 557.4C5194.4 557.4 5232.7 594.6 5232.7 642.8C5232.7 692.1 5194.4 729.3 5146.2 729.3C5098.1 729.3 5059.7 692.1 5059.7 642.8ZM5218.5 827.9V1371H5075.1V827.9H5218.5Z" fill="black"/>
<path d="M5631.2 946.1H5527.2V1371H5387V946.1H5281.9V827.9H5387V659.2H5527.2V827.8H5631.2V946.1Z" fill="black"/>
</g>
<defs>
<clipPath id="clip0_308_622">
<rect width="5654.2" height="1980.3" fill="white"/>
</clipPath>
</defs>
</svg>
